src/assets/arrow-icon-pickup.svg

<svg width="20" height="20" viewBox="0 0 20 20" fill="none" xmlns="http://www.w3.org/2000/svg">
<path d="M14.262 11.6687C14.0675 11.4742 14.0027 11.2798 14.0027 11.0205L14.0027 4.53857C14.0027 4.02002 14.3916 3.6311 14.9102 3.6311C15.4287 3.6311 15.8176 4.02002 15.8176 4.53857L15.8176 11.0205C15.8176 11.539 15.4287 11.928 14.9102 11.928C14.6509 11.928 14.4564 11.8631 14.262 11.6687Z" fill="#CACACA"/>
<path d="M7.77882 5.18554C7.58436 4.99108 7.51954 4.79662 7.51954 4.53735C7.51954 4.01879 7.90845 3.62988 8.42701 3.62988L14.9089 3.62988C15.4275 3.62988 15.8164 4.01879 15.8164 4.53735C15.8164 5.0559 15.4275 5.44481 14.9089 5.44481L8.42701 5.44481C8.16773 5.44481 7.97327 5.38 7.77882 5.18554Z" fill="#CACACA"/>
<path d="M3.89089 15.5578C3.50197 15.1689 3.50197 14.6504 3.89089 14.2615L14.262 3.89038C14.6509 3.50146 15.1694 3.50146 15.5583 3.89038C15.9473 4.2793 15.9473 4.79785 15.5583 5.18676L5.18727 15.5578C4.79836 15.9468 4.2798 15.9468 3.89089 15.5578Z" fill="#CACACA"/>
</svg>

<svg width="20" height="20" fill="none" xmlns="http://www.w3.org/2000/svg"><path d="M14.262 11.669a.832.832 0 01-.26-.649V4.54c0-.519.39-.908.908-.908.519 0 .908.389.908.908v6.482a.886.886 0 01-.908.907.832.832 0 01-.648-.26z" fill="#CACACA"/><path d="M7.779 5.186a.832.832 0 01-.26-.649c0-.518.39-.907.908-.907h6.482c.518 0 .907.389.907.907a.886.886 0 01-.907.908H8.427a.832.832 0 01-.648-.26z" fill="#CACACA"/><path d="M3.89 15.558c-.388-.39-.388-.908 0-1.296L14.263 3.89c.389-.389.907-.389 1.296 0 .39.39.39.908 0 1.297l-10.37 10.37c-.39.39-.908.39-1.297 0z" fill="#CACACA"/></svg>
